X:1
T:Louis Cyr
M:2/4
L:1/16
C:Jean-Claude Mirandette
S:Jean Marie Verret and Guy Bouchard
Z:For more tunes, discussion of the tunes, and other
Z:traditional music and dance resources, go to
Z:<http://tunes.nhcountrydance.com>.
F:http://web.me.com/peterynh/music/fiddle-tunes_abc_reels.html
K:G
|: G,2G,B, D2B,D | EDEF G2GA | BAGB AGED | EDEF (3(EFE)DB, |
G,2G,B, D2B,D | EDEF G2GA | BAGB AGED |1 EGFA G2DB, :|2EGFA G2GA |]
|: BAGB A2GA | BAGB A2AB | cBAc B2AB | cABG A2GA |
BAGB A2GA | BAGB AGED | E z [eB][eB] [eB] z [FA,][FA,] \
|1 [FA,]z [EB,][EB,] [EB,] z GA:|2 [FA,]z [EB,][EB,] [EB,] z D |]
